X: 1
T: Mora polskan  [hambo]
O: Trad
N: Taught by Bengt Jonsson as a hambo.
N: Played in several different polska rhythms.
R: polska, hambo
M: 3/4
L: 1/8
K: Dm
|: "Dm(A7)"A2 A>^G A>^c | "Dm"d2 d>^c d>e \
|[1,3 "Bb(Gm)"f2 f>e (3d^cd | "A7"e2 e>^c A2 :|[2,4 "Bb(Gm)"f2 f>e f>g | "A7"a2 a4 :|
|: "A7"a2 (3aba g>e | "Dm"f2 f>d "(A)"e2- \
| "A7"e>f e>^c A>c |1,3 "Dm"d>^c d>e f>g :|2,4 "Dm"d2 d4 :|

%%sep 1 1 500

